svg/u1f3a8.svg

<svg viewBox="0 0 128 128" xmlns="http://www.w3.org/2000/svg">
  <path d="M77.37,19.32C46.83,3.21,19.03,14.69,9.01,30.38c-3.28,5.13-5.6,14.46-5.51,21.86 c0.18,15.23,8.61,32.2,26.8,49.32c22.38,21.06,45.22,19.22,52.48,17.45c9.14-2.23,15.27-4.13,14.33-12.65 c-0.12-1.12-1.08-3.15-2.53-4.04c-4.65-2.82-14.36-4.29-18.93-11.08c-6.64-9.89,1.62-10.39,9.53-6.16 c8.47,4.53,13.31,7.36,21.81,6.58c6.23-0.57,15.29-4.33,16.52-14.84C124.61,67.31,110.73,36.92,77.37,19.32z M89.84,71 c-2.34,3.56-8.12,2.34-11.91-1.02c-3.79-3.36-4.28-8.96-1.82-11.16c2.5-2.23,7.2-1.72,10.99,1.64C90.88,63.83,91.67,68.2,89.84,71z" fill="#AC5810"/>
  <path d="M78.71,15.69C48.17-0.42,20.3,12.04,10.28,27.73C0.25,43.43,4.61,72.5,31.63,97.93 c22.38,21.06,45.22,19.22,52.48,17.45c9.14-2.23,15.59-6.58,11.57-12.13c-2.77-3.83-12.7-6.72-18.69-15.64 c-6.64-9.89,1.62-10.39,9.53-6.16c8.47,4.53,13.31,7.36,21.81,6.58c6.23-0.57,15.65-5.39,15.37-15.13 C123.41,63.33,112.07,33.3,78.71,15.69z M92.77,70.72c-2.85,3.08-8.92,2.24-13.56-1.86c-4.63-4.11-6.08-9.93-3.23-13 c2.85-3.08,8.92-2.24,13.56,1.86C94.18,61.82,95.62,67.65,92.77,70.72z" fill="#F2A259"/>
  <path d="M47.62,84.66c1.15-2.94,9.33-6.16,16.85-0.81c2.11,1.5,4.75,5.32,4.48,10.12 C68.07,109.65,42.34,98.19,47.62,84.66z" fill="#EEEEEE"/>
  <path d="M23.73,58.07c2.63-4.2,9.02-4.68,14.61-1.05c4.98,3.23,9.14,11.18,3,16.38 c-3.29,2.79-8.98,1.06-12.49-1.63C24.59,68.52,20.9,62.59,23.73,58.07z" fill="#2686C6"/>
  <path d="M57.67,21.42c0.81-3.33,6.46-3.9,10.46-2.41c6.91,2.58,10.04,9.42,7.49,13.23 c-3.73,5.57-11.86,3.66-14.94,0.47C55.45,27.31,56.99,24.21,57.67,21.42z" fill="#FFEE58"/>
  <path d="M97.71,37.72c5.54,2.52,6.26,6.51,5.2,9.42c-0.66,1.8-2.01,4.27-4.77,4.49 c-4.67,0.38-5.32-3.48-8.65-4.54c-2.8-0.89-3.94-4.72-2.84-7.29C87.67,37.43,90.65,34.5,97.71,37.72z" fill="#7CB342"/>
  <path d="M66.97,96.96c-1.38,1.25-6.17,2.79-12.25-1.01c-2.06-1.29-4.03-3.16-5.14-5.96 c-0.87-2.2-0.68-4.32-0.29-5.26c1.12-2.71,2.83-3.21,2.83-3.21c-1.72-0.12-4.97,2.16-5.51,5.15c-0.17,0.94-1.38,6.82,6.41,12.15 c6.71,4.6,16.63,4.17,15.98-5.09C68.7,94.87,67.85,96.17,66.97,96.96z" fill="#B0B0B0"/>
  <path d="M44.26,65.72c-0.19,3.57-4.37,5.45-6.7,5.46c-6.59,0.01-12.51-4.13-12.92-11.5 c-0.07-1.32,0.58-3.23,0.58-3.23c-0.87,0.37-2.1,2.25-2.36,3.31c-1.54,6.36,4.87,13.77,11.62,15.27c3.42,0.76,7.73-0.41,9.3-3.47 C44.9,69.38,44.68,67.51,44.26,65.72z" fill="#01579B"/>
  <path d="M67.32,32.72c-4.48-0.51-6.96-3.44-7.61-4.11c-1.78-1.86-2.88-3.67-2.24-6.35 c0.2-0.86,0.69-1.96,1.29-2.58c-0.73,0.24-1.91,1.81-2.28,2.66c-0.38,0.85-1.76,4.04,1.2,7.97c1.83,2.44,5.02,5.19,9.74,5.85 c3.35,0.47,5.75-0.73,7.75-2.68c1.36-1.33,1.96-4.33,1.15-5.88C76.45,28.73,74.38,33.53,67.32,32.72z" fill="#DF7F14"/>
  <path d="M104.17,44.85c-0.41-1.51-1.58-3.08-1.7-3.16c0.51,0.98,1.52,3.92-0.6,6.78 c-1.07,1.44-4.29,3.21-8.09,0.13c-1.12-0.91-2.02-1.81-4.04-2.55c-5.13-1.89-2.89-7.11-1.11-8.73c-1.4,0.73-2.67,2.04-3.2,4.04 c-0.74,2.79,1.09,5.71,3.87,7.11c3.16,1.59,4.18,4.66,8.51,4.66c0.22,0,0.45-0.01,0.7-0.03c2.92-0.25,4.15-1.38,5.04-2.76 C104.64,48.62,104.67,46.67,104.17,44.85z" fill="#558B2F"/>
  <path d="M25.82,25.79c2.28-2.25,6.25-4.63,12.06-1.6c3.5,1.82,7.57,3.96,5.73,11.36 c-1.14,4.59-7.82,7.02-13.4,1.91C28,35.44,19.6,31.93,25.82,25.79z" fill="#F44336"/>
  <path d="M44.94,34.56c0.07-1.75-0.83-3.88-1.14-4.6c0.05,1.05,0.96,3.7-3.21,7.21 c-1.45,1.22-4.08,2.15-6.95,1.02c-1.47-0.58-3.58-3.01-5.09-3.62c-5.61-2.26-3.19-8.27-2.4-9.09c-1.27,0.89-2.35,2.31-2.75,4.38 c-0.52,2.71-0.04,5.27,3.68,8.2c10.56,8.33,13.8,3.31,14.95,2.03C43.48,38.53,44.86,36.49,44.94,34.56z" fill="#C62828"/>
  <path d="M65.74,19.36c-1.47-0.69-5.67-0.49-6.48,3.01c-0.49,2.1,1.05,4.23,2.5,3.98 c1.65-0.28,0.77-2.85,1.76-3.58C65.03,21.67,67.8,20.33,65.74,19.36z" fill="#FFFFFF"/>
  <path d="M34.76,24.46c-1.45-0.96-6.08-0.97-7.47,2.58c-0.84,2.13,0.47,4.6,2.04,4.56 c1.79-0.04,0.93-2.15,2.42-3.49C33.63,26.42,36.79,25.8,34.76,24.46z" fill="#FFFFFF"/>
  <path d="M34.07,56.5c-1.37-0.87-5.43-1.21-7.11,1.97c-1.23,2.34,0.46,4.92,1.93,4.85 c1.67-0.08,1.11-2.74,2.18-3.34C32.7,59.07,35.99,57.72,34.07,56.5z" fill="#FFFFFF"/>
  <path d="M57.4,83.13c-1.47-0.69-5.67-0.49-6.48,3.01c-0.49,2.1,1.05,4.23,2.5,3.98 c1.65-0.28,0.77-2.85,1.76-3.58C56.68,85.44,59.45,84.1,57.4,83.13z" fill="#FFFFFF"/>
  <path d="M95.08,38.05c-1.32-0.94-5.49-1.49-6.91,1.81c-0.85,1.98,0.28,4.35,1.75,4.36 c1.67,0.01,1.26-2.67,2.37-3.21C93.96,40.2,96.93,39.37,95.08,38.05z" fill="#FFFFFF"/>
</svg>

<svg viewBox="0 0 128 128" xmlns="http://www.w3.org/2000/svg">
  <defs/>
  <path d="M77.37,19.32 C46.83,3.21 19.03,14.69 9.01,30.38 C5.73,35.51 3.41,44.84 3.5,52.24 C3.68,67.47 12.11,84.44 30.3,101.56 C52.68,122.62 75.52,120.78 82.78,119.01 C91.92,116.78 98.05,114.88 97.11,106.36 C96.99,105.24 96.03,103.21 94.58,102.32 C89.93,99.5 80.22,98.03 75.65,91.24 C69.01,81.35 77.27,80.85 85.18,85.08 C93.65,89.61 98.49,92.44 106.99,91.66 C113.22,91.09 122.28,87.33 123.51,76.82 C124.61,67.31 110.73,36.92 77.37,19.32 Z M89.84,71 C87.5,74.56 81.72,73.34 77.93,69.98 C74.14,66.62 73.65,61.02 76.11,58.82 C78.61,56.59 83.31,57.1 87.1,60.46 C90.88,63.83 91.67,68.2 89.84,71 Z" fill="#AC5810"/>
  <path d="M78.71,15.69 C48.17,-0.42 20.3,12.04 10.28,27.73 C0.25,43.43 4.61,72.5 31.63,97.93 C54.01,118.99 76.85,117.15 84.11,115.38 C93.25,113.15 99.7,108.8 95.68,103.25 C92.91,99.42 82.98,96.53 76.99,87.61 C70.35,77.72 78.61,77.22 86.52,81.45 C94.99,85.98 99.83,88.81 108.33,88.03 C114.56,87.46 123.98,82.64 123.7,72.9 C123.41,63.33 112.07,33.3 78.71,15.69 Z M92.77,70.72 C89.92,73.8 83.85,72.96 79.21,68.86 C74.58,64.75 73.13,58.93 75.98,55.86 C78.83,52.78 84.9,53.62 89.54,57.72 C94.18,61.82 95.62,67.65 92.77,70.72 Z" fill="#F2A259"/>
  <path d="M47.62,84.66 C48.77,81.72 56.95,78.5 64.47,83.85 C66.58,85.35 69.22,89.17 68.95,93.97 C68.07,109.65 42.34,98.19 47.62,84.66 Z" fill="#EEEEEE"/>
  <path d="M23.73,58.07 C26.36,53.87 32.75,53.39 38.34,57.02 C43.32,60.25 47.48,68.2 41.34,73.4 C38.05,76.19 32.36,74.46 28.85,71.77 C24.59,68.52 20.9,62.59 23.73,58.07 Z" fill="#2686C6"/>
  <path d="M57.67,21.42 C58.48,18.09 64.13,17.52 68.13,19.01 C75.04,21.59 78.17,28.43 75.62,32.24 C71.89,37.81 63.76,35.9 60.68,32.71 C55.45,27.31 56.99,24.21 57.67,21.42 Z" fill="#FFEE58"/>
  <path d="M97.71,37.72 C103.25,40.24 103.97,44.23 102.91,47.14 C102.25,48.94 100.9,51.41 98.14,51.63 C93.47,52.01 92.82,48.15 89.49,47.09 C86.69,46.2 85.55,42.37 86.65,39.8 C87.67,37.43 90.65,34.5 97.71,37.72 Z" fill="#7CB342"/>
  <path d="M66.97,96.96 C65.59,98.21 60.8,99.75 54.72,95.95 C52.66,94.66 50.69,92.79 49.58,89.99 C48.71,87.79 48.9,85.67 49.29,84.73 C50.41,82.02 52.12,81.52 52.12,81.52 C50.4,81.4 47.15,83.68 46.61,86.67 C46.44,87.61 45.23,93.49 53.02,98.82 C59.73,103.42 69.65,102.99 69,93.73 C68.7,94.87 67.85,96.17 66.97,96.96 Z" fill="#B0B0B0"/>
  <path d="M44.26,65.72 C44.07,69.29 39.89,71.17 37.56,71.18 C30.97,71.19 25.05,67.05 24.64,59.68 C24.57,58.36 25.22,56.45 25.22,56.45 C24.35,56.82 23.12,58.7 22.86,59.76 C21.32,66.12 27.73,73.53 34.48,75.03 C37.9,75.79 42.21,74.62 43.78,71.56 C44.9,69.38 44.68,67.51 44.26,65.72 Z" fill="#01579B"/>
  <path d="M67.32,32.72 C62.84,32.21 60.36,29.28 59.71,28.61 C57.93,26.75 56.83,24.94 57.47,22.26 C57.67,21.4 58.16,20.3 58.76,19.68 C58.03,19.92 56.85,21.49 56.48,22.34 C56.1,23.19 54.72,26.38 57.68,30.31 C59.51,32.75 62.7,35.5 67.42,36.16 C70.77,36.63 73.17,35.43 75.17,33.48 C76.53,32.15 77.13,29.15 76.32,27.6 C76.45,28.73 74.38,33.53 67.32,32.72 Z" fill="#DF7F14"/>
  <path d="M104.17,44.85 C103.76,43.34 102.59,41.77 102.47,41.69 C102.98,42.67 103.99,45.61 101.87,48.47 C100.8,49.91 97.58,51.68 93.78,48.6 C92.66,47.69 91.76,46.79 89.74,46.05 C84.61,44.16 86.85,38.94 88.63,37.32 C87.23,38.05 85.96,39.36 85.43,41.36 C84.69,44.15 86.52,47.07 89.3,48.47 C92.46,50.06 93.48,53.13 97.81,53.13 C98.03,53.13 98.26,53.12 98.51,53.1 C101.43,52.85 102.66,51.72 103.55,50.34 C104.64,48.62 104.67,46.67 104.17,44.85 Z" fill="#558B2F"/>
  <path d="M25.82,25.79 C28.1,23.54 32.07,21.16 37.88,24.19 C41.38,26.01 45.45,28.15 43.61,35.55 C42.47,40.14 35.79,42.57 30.21,37.46 C28,35.44 19.6,31.93 25.82,25.79 Z" fill="#F44336"/>
  <path d="M44.94,34.56 C45.01,32.81 44.11,30.68 43.8,29.96 C43.85,31.01 44.76,33.66 40.59,37.17 C39.14,38.39 36.51,39.32 33.64,38.19 C32.17,37.61 30.06,35.18 28.55,34.57 C22.94,32.31 25.36,26.3 26.15,25.48 C24.88,26.37 23.8,27.79 23.4,29.86 C22.88,32.57 23.36,35.13 27.08,38.06 C37.64,46.39 40.88,41.37 42.03,40.09 C43.48,38.53 44.86,36.49 44.94,34.56 Z" fill="#C62828"/>
  <path d="M65.74,19.36 C64.27,18.67 60.07,18.87 59.26,22.37 C58.77,24.47 60.31,26.6 61.76,26.35 C63.41,26.07 62.53,23.5 63.52,22.77 C65.03,21.67 67.8,20.33 65.74,19.36 Z" fill="#FFFFFF"/>
  <path d="M34.76,24.46 C33.31,23.5 28.68,23.49 27.29,27.04 C26.45,29.17 27.76,31.64 29.33,31.6 C31.12,31.56 30.26,29.45 31.75,28.11 C33.63,26.42 36.79,25.8 34.76,24.46 Z" fill="#FFFFFF"/>
  <path d="M34.07,56.5 C32.7,55.63 28.64,55.29 26.96,58.47 C25.73,60.81 27.42,63.39 28.89,63.32 C30.56,63.24 30,60.58 31.07,59.98 C32.7,59.07 35.99,57.72 34.07,56.5 Z" fill="#FFFFFF"/>
  <path d="M57.4,83.13 C55.93,82.44 51.73,82.64 50.92,86.14 C50.43,88.24 51.97,90.37 53.42,90.12 C55.07,89.84 54.19,87.27 55.18,86.54 C56.68,85.44 59.45,84.1 57.4,83.13 Z" fill="#FFFFFF"/>
  <path d="M95.08,38.05 C93.76,37.11 89.59,36.56 88.17,39.86 C87.32,41.84 88.45,44.21 89.92,44.22 C91.59,44.23 91.18,41.55 92.29,41.01 C93.96,40.2 96.93,39.37 95.08,38.05 Z" fill="#FFFFFF"/>
</svg>
